X: 10073
T: MRS. MACINTIRE'S JIG
C: Bob McQuillen 15 Oct 93
B: Bob's Note Book 10 #73
%R: jig
Z: 2020 John Chambers <jc:trillian.mit.edu>
M: 6/8
L: 1/8
K: D
A \
| dAF G2B | AFD E2F | AFA dfd | Bed cBA |\
| dAF GAB | AFD E2B | Adf eag | fdd d2 :|
|: e \
| f2d dcd | Bed cBA | f2d dAF | GAB AFE |\
| DFA AFA | def e2a | fdB Agf | edc d2 :|
%%begintext align
%% This one's for Lois MacIntire
%% (Mrs. Ray) -- she's Allan & Leanne's mother, and she and Ray have
%% shown this writer truck loads of hospitality and TLC
%% over the years -- Thanks so much, Lois - you are greatly
%% appreciated --
%%endtext

%%sep 1 1 500

%%sep 1 1 500

